X:167
T: He bo
N: C0277
O: China,Heilongjiang, Ningan
S: III, 53]
N: Sehr alte Weise, seit Mitte der Ming-Dynastie). Kommt sehr
N: haeufig im Qu yi, Lokaloper) vor.
R: Xiaodiao, Shidiao, Dieduanqiao. "Baishe zhuan" de gushi]
M: 4/4
L: 1/16
K: Bb
g2g2g2g2f2g2c2a2 | g2g4f2g8 |
c3bc2f2d2c2b2g2 | d3dd2d2c4a2g2 | f2f4g2f8 |
c2c2d2c2b4b2g2 | c2c2d2c2b4b2a2 |
g2g4g2b4d4 | f2f4d2
d6f2 | g8f6g2 | b4b4
g3bg2f2 | b8g2f2d4 | c2B2c4
z2g2fgd2 | c2c2Bcd2c8

@@@ Tune index: 6168
